images/svg/visa.svg

<?xml version="1.0" encoding="UTF-8"?>
<!-- Uploaded to: SVG Repo, www.svgrepo.com, Generator: SVG Repo Mixer Tools -->
<svg width="800px" height="800px" viewBox="0 -86.5 256 256" version="1.1" xmlns="http://www.w3.org/2000/svg" xmlns:xlink="http://www.w3.org/1999/xlink" preserveAspectRatio="xMidYMid">
    <defs>
        <linearGradient x1="45.9741966%" y1="-2.00617467%" x2="54.8768726%" y2="100%" id="linearGradient-1">
            <stop stop-color="#222357" offset="0%">
</stop>
            <stop stop-color="#254AA5" offset="100%">
</stop>
        </linearGradient>
    </defs>
    <g>
        <path d="M132.397094,56.2397455 C132.251036,44.7242808 142.65954,38.2977599 150.500511,34.4772086 C158.556724,30.5567233 161.262627,28.0430004 161.231878,24.5376253 C161.17038,19.1719416 154.805357,16.804276 148.847757,16.7120293 C138.454628,16.5505975 132.412467,19.5178668 127.607952,21.7625368 L123.864273,4.24334875 C128.684163,2.02174043 137.609033,0.084559486 146.864453,-7.10542736e-15 C168.588553,-7.10542736e-15 182.802234,10.7236802 182.879107,27.3511501 C182.963666,48.4525854 153.69071,49.6210438 153.890577,59.05327 C153.959762,61.912918 156.688728,64.964747 162.669389,65.7411565 C165.628971,66.133205 173.800493,66.433007 183.0636,62.1665965 L186.699658,79.11693 C181.718335,80.931115 175.314876,82.6684285 167.343223,82.6684285 C146.895202,82.6684285 132.512402,71.798691 132.397094,56.2397455 M221.6381,81.2078555 C217.671491,81.2078555 214.327548,78.8940005 212.836226,75.342502 L181.802894,1.24533061 L203.511621,1.24533061 L207.831842,13.1835926 L234.360459,13.1835926 L236.866494,1.24533061 L256,1.24533061 L239.303345,81.2078555 L221.6381,81.2078555 M224.674554,59.6067505 L230.939643,29.5804456 L213.781755,29.5804456 L224.674554,59.6067505 M106.076031,81.2078555 L88.9642665,1.24533061 L109.650591,1.24533061 L126.754669,81.2078555 L106.076031,81.2078555 M75.473185,81.2078555 L53.941265,26.7822953 L45.2316377,73.059396 C44.2092367,78.2252115 40.1734431,81.2078555 35.6917903,81.2078555 L0.491982464,81.2078555 L0,78.886313 C7.22599245,77.318119 15.4359498,74.7890215 20.409585,72.083118 C23.4537265,70.4303645 24.322383,68.985166 25.3217224,65.0569935 L41.8185094,1.24533061 L63.68098,1.24533061 L97.1972855,81.2078555 L75.473185,81.2078555" fill="url(#linearGradient-1)" transform="translate(128.000000, 41.334214) scale(1, -1) translate(-128.000000, -41.334214) ">
</path>
    </g>
</svg>

<svg width="800" height="800" viewBox="0 -86.5 256 256" xmlns="http://www.w3.org/2000/svg" preserveAspectRatio="xMidYMid"><defs><linearGradient x1="45.974%" y1="-2.006%" x2="54.877%" y2="100%" id="linearGradient-1"><stop stop-color="#222357" offset="0%"/><stop stop-color="#254AA5" offset="100%"/></linearGradient></defs><path d="M132.397 56.24c-.146-11.516 10.263-17.942 18.104-21.763 8.056-3.92 10.762-6.434 10.73-9.94-.06-5.365-6.426-7.733-12.383-7.825-10.393-.161-16.436 2.806-21.24 5.05l-3.744-17.519c4.82-2.221 13.745-4.158 23-4.243 21.725 0 35.938 10.724 36.015 27.351.085 21.102-29.188 22.27-28.988 31.702.069 2.86 2.798 5.912 8.778 6.688 2.96.392 11.131.692 20.395-3.574l3.636 16.95c-4.982 1.814-11.385 3.551-19.357 3.551-20.448 0-34.83-10.87-34.946-26.428m89.241 24.968c-3.967 0-7.31-2.314-8.802-5.865L181.803 1.245h21.709l4.32 11.939h26.528l2.506-11.939H256l-16.697 79.963h-17.665m3.037-21.601l6.265-30.027h-17.158l10.893 30.027m-118.599 21.6L88.964 1.246h20.687l17.104 79.963h-20.679m-30.603 0L53.941 26.782l-8.71 46.277c-1.022 5.166-5.058 8.149-9.54 8.149H.493L0 78.886c7.226-1.568 15.436-4.097 20.41-6.803 3.044-1.653 3.912-3.098 4.912-7.026L41.819 1.245H63.68l33.516 79.963H75.473" fill="url(#linearGradient-1)" transform="matrix(1 0 0 -1 0 82.668)"/></svg>
